public/icons/networks/ink.svg

<svg width="100" height="100" viewBox="0 0 100 100" fill="none" xmlns="http://www.w3.org/2000/svg">
<path fill-rule="evenodd" clip-rule="evenodd" d="M100 50C100 22.3858 77.6142 -1.20706e-06 50 0C22.3858 1.20706e-06 -1.20706e-06 22.3858 0 50C1.20706e-06 77.6142 22.3858 100 50 100C77.6142 100 100 77.6142 100 50ZM57.1364 87.4208C57.1364 90.8128 54.3524 93.57 50.4008 93.6491C50.2913 93.6501 50.1817 93.6506 50.072 93.6508H49.928C25.8534 93.6119 6.3492 74.0837 6.3492 50.0001C6.3492 25.8924 25.8923 6.34929 50 6.34928C50.13 6.34928 50.2599 6.34985 50.3896 6.35099C54.8489 6.43041 57.1364 9.18744 57.1364 12.5792C57.1364 16.0313 54.0849 18.5714 50.8519 18.5714C47.6191 18.5715 47.4603 18.5715 44.3657 18.8194C41.2711 19.0674 38.0711 21.6076 38.0711 25.0494C38.0711 28.5117 40.8836 31.2998 44.3657 31.2998H71.8109C75.2828 31.2998 78.0953 34.088 78.0953 37.5298C78.0953 40.9716 75.2828 43.7598 71.8109 43.7598H29.5381C26.056 43.7598 23.2435 46.5582 23.2435 50.0102C23.2435 53.4521 26.056 56.2402 29.5381 56.2402H50.852C54.3239 56.2402 57.1364 59.0284 57.1364 62.4804C57.1364 65.9222 54.3239 68.7104 50.852 68.7104H44.3657C40.8836 68.7104 38.0711 71.4986 38.0711 74.9404C38.0711 78.3924 40.9536 80.9122 44.3657 81.1704C44.6347 81.1908 44.8806 81.2095 45.1072 81.2268C46.3081 81.3183 46.9642 81.3683 47.6212 81.3957C48.4125 81.4286 49.2051 81.4286 50.9524 81.4286C54.4242 81.4286 57.1364 83.979 57.1364 87.4208Z" fill="#7132F5"/>
</svg>

<svg width="100" height="100" viewBox="0 0 100 100" fill="none" xmlns="http://www.w3.org/2000/svg"><path fill-rule="evenodd" clip-rule="evenodd" d="M100 50c0-27.614-22.386-50-50-50S0 22.386 0 50s22.386 50 50 50 50-22.386 50-50ZM57.136 87.42c0 3.393-2.784 6.15-6.735 6.23h-.473C25.853 93.613 6.349 74.085 6.349 50 6.35 25.892 25.892 6.35 50 6.35l.39.001c4.459.08 6.746 2.836 6.746 6.228 0 3.452-3.051 5.992-6.284 5.992-3.233 0-3.392 0-6.486.248-3.095.248-6.295 2.789-6.295 6.23 0 3.463 2.813 6.25 6.295 6.25H71.81c3.472 0 6.284 2.789 6.284 6.23 0 3.443-2.812 6.23-6.284 6.23H29.538c-3.482 0-6.294 2.8-6.294 6.251 0 3.442 2.812 6.23 6.294 6.23h21.314c3.472 0 6.284 2.788 6.284 6.24 0 3.442-2.812 6.23-6.284 6.23h-6.486c-3.482 0-6.295 2.789-6.295 6.23 0 3.452 2.883 5.972 6.295 6.23l.741.057c1.201.091 1.857.141 2.514.169.791.033 1.584.033 3.331.033 3.472 0 6.184 2.55 6.184 5.992Z" fill="#7132F5"/></svg>
